X:1
T:T
T:La Danse
T:Lied / HS.81.Vanpelt.280
T:Een speelmansboek uit Maastricht/Tongeren (1786-1824) 
T:BRON: Lusthof-der-muziek.blogspot.com: Handschrift van VanPelt (1786-1824)  / Transcriptie door Ad Kwakernaat (2015) 
T:Naar een origineel van Grétry André-Ernest-Modeste (1741-1813) 
T:Genoteerd door Van der Elst Johan
Z:Een speelmansboek uit Maastricht/Tongeren (1786-1824)
Z:Genoteerd door Van der Elst Johan
L:1/8
Q:1/4=100
M:6/8
K:G
V:1 treble nm="Viool" snm="Vl."
V:1
 d B2 d || c2 e d2 c | !wedge!B(Bd) A2 B | G2 d A2 B | G2 G c2 c | A2 A c2 c | !fermata!A2 G d2 d | %7
 c2 B A2 c | B2 G A2 A | d2 d (def) | e3 ^c3 | d2 A B2 B | c2 c B2 B | A2 A B2 B | c2 c B2 B | %15
"_BRON: Alamire uitgave \"Speelmansboek uit Maastricht\"\n vermeldt bij concordatie:\n              + HS.81.Vanpelt.280 - HS.81.Vanpelt.147\n              + Grétry André-Ernest-Modeste (1741-1813), \nRichard, coeur de lion \n(1784)\n              + La Clé du Caveau (Paris, 4de ed., 1848): 305\n" A3 (d^cd) | %16
 G3 =fe^d | e3 edc | B3 A3 | c3 (edc) | B3 A3 | G2 |] %22

